pp/play_print.svg

<svg viewBox="0 0 20 20" fill="none" xmlns="http://www.w3.org/2000/svg" height="1em" width="1em">
  <g opacity="0.8">
    <path d="M19.4897 10.1901C20.1542 10.5936 20.1244 11.5679 19.4364 11.9299L7.46565 18.2288C6.79975 18.5792 5.99999 18.0963 5.99999 17.3438L5.99999 10.5V3.77701C5.99999 2.99738 6.85255 2.51761 7.51897 2.92222L19.4897 10.1901Z" fill="currentColor"/>
  </g>
  <path fill-rule="evenodd" clip-rule="evenodd" d="M4.65002 16.8438L16.6207 10.5449L4.65001 3.27701L4.65002 16.8438ZM17.0864 11.4299C17.7744 11.0679 17.8042 10.0936 17.1397 9.69015L5.16899 2.42222C4.50257 2.01761 3.65001 2.49738 3.65001 3.27701L3.65001 16.8438C3.65001 17.5963 4.44977 18.0792 5.11568 17.7288L17.0864 11.4299Z" fill="black"/>
</svg>

<svg viewBox="0 0 20 20" fill="none" xmlns="http://www.w3.org/2000/svg" height="1em" width="1em">
  <path d="M19.49 10.19a1 1 0 0 1-.054 1.74l-11.97 6.299A1 1 0 0 1 6 17.344V3.777a1 1 0 0 1 1.519-.855l11.97 7.268Z" fill="currentColor" opacity=".8"/>
  <path fill-rule="evenodd" clip-rule="evenodd" d="m4.65 16.844 11.97-6.3L4.65 3.278v13.567Zm12.436-5.414a1 1 0 0 0 .054-1.74L5.169 2.422a1 1 0 0 0-1.519.855v13.567a1 1 0 0 0 1.466.885l11.97-6.3Z" fill="#000"/>
</svg>
